COLOR/action 16/16/grid-rectangular.svg

<svg viewBox="0 0 16 16" xmlns="http://www.w3.org/2000/svg"><g stroke-width="1.166667"><path d="m2.1666667 1v1.1666667h-1.1666667v1.1666666h1.1666667v2.3333334h-1.1666667v1.1666666h1.1666667v2.3333334h-1.1666667v1.1666663h1.1666667v2.333334h-1.1666667v1.166666h1.1666667v1.166667h1.1666666v-1.166667h2.3333334v1.166667h1.1666666v-1.166667h2.3333337v1.166667h1.166666v-1.166667h2.333334v1.166667h1.166666v-1.166667h1.166667v-1.166666h-1.166667v-2.333334h1.166667v-1.1666663h-1.166667v-2.3333334h1.166667v-1.1666666h-1.166667v-2.3333334h1.166667v-1.1666666h-1.166667v-1.1666667h-1.166666v1.1666667h-2.333334v-1.1666667h-1.166666v1.1666667h-2.3333337v-1.1666667h-1.1666666v1.1666667h-2.3333334v-1.1666667zm1.1666666 2.3333333h2.3333334v2.3333334h-2.3333334zm3.5 0h2.3333337v2.3333334h-2.3333337zm3.4999997 0h2.333334v2.3333334h-2.333334zm-6.9999997 3.5h2.3333334v2.3333334h-2.3333334zm3.5 0h2.3333337v2.3333334h-2.3333337zm3.4999997 0h2.333334v2.3333334h-2.333334zm-6.9999997 3.4999997h2.3333334v2.333334h-2.3333334zm3.5 0h2.3333337v2.333334h-2.3333337zm3.4999997 0h2.333334v2.333334h-2.333334z" fill="#1a7fd4"/><path d="m2.1660156 1v.5h1.1679688v-.5zm3.5 0v.5h1.1679688v-.5zm3.5 0v.5h1.1679684v-.5zm3.5000004 0v.5h1.167968v-.5zm-11.666016 1.1660156v.5h1.1660156v-.5zm2.3339844 0v.5h2.3320312v-.5zm3.5 0v.5h2.3320312v-.5zm3.4999996 0v.5h2.332032v-.5zm3.5 0v.5h1.166016v-.5zm-12.833984 3.5v.5h1.1660156v-.5zm2.3339844 0v.5h2.3320312v-.5zm3.5 0v.5h2.3320312v-.5zm3.4999996 0v.5h2.332032v-.5zm3.5 0v.5h1.166016v-.5zm-12.833984 3.5v.5h1.1660156v-.5zm2.3339844 0v.5h2.3320312v-.5zm3.5 0v.5h2.3320312v-.5zm3.4999996 0v.5h2.332032v-.5zm3.5 0v.5h1.166016v-.5zm-12.833984 3.5000004v.5h1.1660156v-.5zm2.3339844 0v.5h2.3320312v-.5zm3.5 0v.5h2.3320312v-.5zm3.4999996 0v.5h2.332032v-.5zm3.5 0v.5h1.166016v-.5z" fill="#fff" opacity=".3"/><path d="m13.833984 15v-.5h-1.167968v.5zm-3.5 0v-.5h-1.1679684v.5zm-3.4999996 0v-.5h-1.1679684v.5zm-3.5000004 0v-.5h-1.167968v.5zm11.666016-1.166016v-.5h-1.166016v.5zm-2.333984 0v-.5h-2.332032v.5zm-3.5000004 0v-.5h-2.3320312v.5zm-3.4999996 0v-.5h-2.332032v.5zm-3.5 0v-.5h-1.166016v.5zm12.833984-3.5v-.4999996h-1.166016v.4999996zm-2.333984 0v-.4999996h-2.332032v.4999996zm-3.5000004 0v-.4999996h-2.3320312v.4999996zm-3.4999996 0v-.4999996h-2.332032v.4999996zm-3.5 0v-.4999996h-1.166016v.4999996zm12.833984-3.5v-.5h-1.166016v.5zm-2.333984 0v-.5h-2.332032v.5zm-3.5000004 0v-.5h-2.3320312v.5zm-3.4999996 0v-.5h-2.332032v.5zm-3.5 0v-.5h-1.166016v.5zm12.833984-3.5v-.5h-1.166016v.5zm-2.333984 0v-.5h-2.332032v.5zm-3.5000004 0v-.5h-2.3320312v.5zm-3.4999996 0v-.5h-2.332032v.5zm-3.5 0v-.5h-1.166016v.5z" opacity=".2"/></g></svg>

<?xml version="1.0" encoding="UTF-8" standalone="no"?>
<svg
   xmlns:dc="http://purl.org/dc/elements/1.1/"
   xmlns:cc="http://creativecommons.org/ns#"
   xmlns:rdf="http://www.w3.org/1999/02/22-rdf-syntax-ns#"
   xmlns:svg="http://www.w3.org/2000/svg"
   xmlns="http://www.w3.org/2000/svg"
   xmlns:sodipodi="http://sodipodi.sourceforge.net/DTD/sodipodi-0.dtd"
   xmlns:inkscape="http://www.inkscape.org/namespaces/inkscape"
   viewBox="0 0 16 16"
   version="1.1"
   id="svg4"
   sodipodi:docname="grid-rectangular.svg"
   inkscape:version="0.92.4 (5da689c313, 2019-01-14)">
  <metadata
     id="metadata10">
    <rdf:RDF>
      <cc:Work
         rdf:about="">
        <dc:format>image/svg+xml</dc:format>
        <dc:type
           rdf:resource="http://purl.org/dc/dcmitype/StillImage" />
      </cc:Work>
    </rdf:RDF>
  </metadata>
  <defs
     id="defs8" />
  <sodipodi:namedview
     pagecolor="#ffffff"
     bordercolor="#666666"
     borderopacity="1"
     objecttolerance="10"
     gridtolerance="10"
     guidetolerance="10"
     inkscape:pageopacity="0"
     inkscape:pageshadow="2"
     inkscape:window-width="1920"
     inkscape:window-height="1016"
     id="namedview6"
     showgrid="false"
     inkscape:zoom="52.4375"
     inkscape:cx="8"
     inkscape:cy="8"
     inkscape:window-x="0"
     inkscape:window-y="27"
     inkscape:window-maximized="1"
     inkscape:current-layer="svg4" />
  <path
     d="M 2.1666667,1 V 2.1666667 H 1 V 3.3333333 H 2.1666667 V 5.6666667 H 1 V 6.8333333 H 2.1666667 V 9.1666667 H 1 v 1.1666663 h 1.1666667 v 2.333334 H 1 v 1.166666 H 2.1666667 V 15 H 3.3333333 V 13.833333 H 5.6666667 V 15 H 6.8333333 V 13.833333 H 9.166667 V 15 h 1.166666 v -1.166667 h 2.333334 V 15 h 1.166666 V 13.833333 H 15 V 12.666667 H 13.833333 V 10.333333 H 15 V 9.1666667 H 13.833333 V 6.8333333 H 15 V 5.6666667 H 13.833333 V 3.3333333 H 15 V 2.1666667 H 13.833333 V 1 H 12.666667 V 2.1666667 H 10.333333 V 1 H 9.166667 V 2.1666667 H 6.8333333 V 1 H 5.6666667 V 2.1666667 H 3.3333333 V 1 Z M 3.3333333,3.3333333 H 5.6666667 V 5.6666667 H 3.3333333 Z m 3.5,0 H 9.166667 V 5.6666667 H 6.8333333 Z m 3.4999997,0 h 2.333334 v 2.3333334 h -2.333334 z m -6.9999997,3.5 H 5.6666667 V 9.1666667 H 3.3333333 Z m 3.5,0 H 9.166667 V 9.1666667 H 6.8333333 Z m 3.4999997,0 h 2.333334 V 9.1666667 H 10.333333 Z M 3.3333333,10.333333 h 2.3333334 v 2.333334 H 3.3333333 Z m 3.5,0 H 9.166667 v 2.333334 H 6.8333333 Z m 3.4999997,0 h 2.333334 v 2.333334 h -2.333334 z"
     id="path2"
     inkscape:connector-curvature="0"
     style="fill:#1a7fd4;stroke-width:1.16666663" />
  <path
     style="fill:#ffffff;stroke-width:1.16666663;fill-opacity:1;opacity:0.3"
     d="M 2.1660156 1 L 2.1660156 1.5 L 3.3339844 1.5 L 3.3339844 1 L 2.1660156 1 z M 5.6660156 1 L 5.6660156 1.5 L 6.8339844 1.5 L 6.8339844 1 L 5.6660156 1 z M 9.1660156 1 L 9.1660156 1.5 L 10.333984 1.5 L 10.333984 1 L 9.1660156 1 z M 12.666016 1 L 12.666016 1.5 L 13.833984 1.5 L 13.833984 1 L 12.666016 1 z M 1 2.1660156 L 1 2.6660156 L 2.1660156 2.6660156 L 2.1660156 2.1660156 L 1 2.1660156 z M 3.3339844 2.1660156 L 3.3339844 2.6660156 L 5.6660156 2.6660156 L 5.6660156 2.1660156 L 3.3339844 2.1660156 z M 6.8339844 2.1660156 L 6.8339844 2.6660156 L 9.1660156 2.6660156 L 9.1660156 2.1660156 L 6.8339844 2.1660156 z M 10.333984 2.1660156 L 10.333984 2.6660156 L 12.666016 2.6660156 L 12.666016 2.1660156 L 10.333984 2.1660156 z M 13.833984 2.1660156 L 13.833984 2.6660156 L 15 2.6660156 L 15 2.1660156 L 13.833984 2.1660156 z M 1 5.6660156 L 1 6.1660156 L 2.1660156 6.1660156 L 2.1660156 5.6660156 L 1 5.6660156 z M 3.3339844 5.6660156 L 3.3339844 6.1660156 L 5.6660156 6.1660156 L 5.6660156 5.6660156 L 3.3339844 5.6660156 z M 6.8339844 5.6660156 L 6.8339844 6.1660156 L 9.1660156 6.1660156 L 9.1660156 5.6660156 L 6.8339844 5.6660156 z M 10.333984 5.6660156 L 10.333984 6.1660156 L 12.666016 6.1660156 L 12.666016 5.6660156 L 10.333984 5.6660156 z M 13.833984 5.6660156 L 13.833984 6.1660156 L 15 6.1660156 L 15 5.6660156 L 13.833984 5.6660156 z M 1 9.1660156 L 1 9.6660156 L 2.1660156 9.6660156 L 2.1660156 9.1660156 L 1 9.1660156 z M 3.3339844 9.1660156 L 3.3339844 9.6660156 L 5.6660156 9.6660156 L 5.6660156 9.1660156 L 3.3339844 9.1660156 z M 6.8339844 9.1660156 L 6.8339844 9.6660156 L 9.1660156 9.6660156 L 9.1660156 9.1660156 L 6.8339844 9.1660156 z M 10.333984 9.1660156 L 10.333984 9.6660156 L 12.666016 9.6660156 L 12.666016 9.1660156 L 10.333984 9.1660156 z M 13.833984 9.1660156 L 13.833984 9.6660156 L 15 9.6660156 L 15 9.1660156 L 13.833984 9.1660156 z M 1 12.666016 L 1 13.166016 L 2.1660156 13.166016 L 2.1660156 12.666016 L 1 12.666016 z M 3.3339844 12.666016 L 3.3339844 13.166016 L 5.6660156 13.166016 L 5.6660156 12.666016 L 3.3339844 12.666016 z M 6.8339844 12.666016 L 6.8339844 13.166016 L 9.1660156 13.166016 L 9.1660156 12.666016 L 6.8339844 12.666016 z M 10.333984 12.666016 L 10.333984 13.166016 L 12.666016 13.166016 L 12.666016 12.666016 L 10.333984 12.666016 z M 13.833984 12.666016 L 13.833984 13.166016 L 15 13.166016 L 15 12.666016 L 13.833984 12.666016 z "
     id="path817" />
  <path
     id="path822"
     d="M 13.833984,15 V 14.5 H 12.666016 V 15 Z m -3.5,0 V 14.5 H 9.1660156 V 15 Z M 6.8339844,15 V 14.5 H 5.666016 V 15 Z M 3.333984,15 V 14.5 H 2.166016 V 15 Z M 15,13.833984 v -0.5 h -1.166016 v 0.5 z m -2.333984,0 v -0.5 h -2.332032 v 0.5 z m -3.5000004,0 v -0.5 H 6.8339844 v 0.5 z m -3.4999996,0 v -0.5 H 3.333984 v 0.5 z m -3.5,0 v -0.5 H 1 v 0.5 z M 15,10.333984 V 9.8339844 h -1.166016 v 0.4999996 z m -2.333984,0 V 9.8339844 h -2.332032 v 0.4999996 z m -3.5000004,0 V 9.8339844 H 6.8339844 v 0.4999996 z m -3.4999996,0 V 9.8339844 H 3.333984 v 0.4999996 z m -3.5,0 V 9.8339844 H 1 V 10.333984 Z M 15,6.833984 v -0.5 h -1.166016 v 0.5 z m -2.333984,0 v -0.5 h -2.332032 v 0.5 z m -3.5000004,0 v -0.5 H 6.8339844 v 0.5 z m -3.4999996,0 v -0.5 H 3.333984 v 0.5 z m -3.5,0 v -0.5 H 1 v 0.5 z M 15,3.333984 v -0.5 h -1.166016 v 0.5 z m -2.333984,0 v -0.5 h -2.332032 v 0.5 z m -3.5000004,0 v -0.5 H 6.8339844 v 0.5 z m -3.4999996,0 v -0.5 H 3.333984 v 0.5 z m -3.5,0 v -0.5 H 1 v 0.5 z"
     style="opacity:0.2;fill:#000000;fill-opacity:1;stroke-width:1.16666663"
     inkscape:connector-curvature="0" />
</svg>
